X: 115201
Q: "Strathspey."
M: C
L: 1/16
K: A
uc2 |\
vAuA3 vc3uA (3(c2d2e2) c4 | B=G3 B3c dcBA G3B |\
ug2 |\
va3veua3ue agfe a3ue | v=g3vdug3ud B=G3 G3u^g |
a3ea3e agfe a3e | f3ea3e cA3 A3g |\
a3ea3e agfe a3e | =g3dg3d B=G3 G3B |\


